source/img/svg/bckg-main.svg

<svg width="375" height="680" viewBox="0 0 375 680" fill="none" xmlns="http://www.w3.org/2000/svg">
<g clip-path="url(#clip0)">
<rect width="375" height="680" transform="matrix(1 0 0 -1 0 680)" fill="white"/>
<path d="M212.396 400.426L166.327 320.416C166.327 322.564 202.431 383.779 212.396 400.579V400.426Z" fill="#C2D5E5"/>
<path d="M212.396 532.907L166.327 570.189C166.327 570.189 188.863 552.315 212.396 533.444V532.907Z" fill="#B9D0E2"/>
<path d="M212.396 341.358C189.017 330.235 166.327 319.572 166.327 320.416L212.396 341.972V341.358Z" fill="#C2D5E5"/>
<path d="M212.396 485.959L166.327 483.351L212.396 486.496V485.959Z" fill="#B9D0E2"/>
<path d="M195.528 638.89L166.327 685.027L212.396 685.717H240.381L195.528 638.89Z" fill="#D3E1ED"/>
<path d="M260.457 628.243L195.018 638.635L240.077 685.777L260.457 628.243Z" fill="#E1EAF2"/>
<path d="M213.31 597.193L166.328 570.266L195.529 638.635L261.37 628.243L213.31 597.193Z" fill="#D0DFEB"/>
<path d="M271.457 489.435C247.925 508.306 166.327 570.266 166.327 570.266L260.761 628.548L271.457 489.435Z" fill="#E1EAF2"/>
<path d="M284.841 372.278L404.191 320.464L271.378 489.991L284.841 372.278Z" fill="#E6EEF5"/>
<path d="M214.83 486.082L166.327 483.351V570.266L213.309 534.484L271.457 489.708L214.83 486.082Z" fill="#B9D0E2"/>
<path d="M215.134 405.109L166.327 483.351L212.396 485.96L271.457 489.708L215.134 405.109Z" fill="#C2D5E5"/>
<path d="M285.098 372.278L166.328 320.416L215.135 405.109L285.098 372.278Z" fill="#C2D5E5"/>
<path d="M192.21 198.366L166.25 320.416C166.25 319.572 188.939 330.235 212.319 341.358L285.352 372.533L192.21 198.366Z" fill="#ADC7DC"/>
<path d="M-14.1146 646.287L-68.7686 698.912L32.1842 602.408L-14.1146 646.287Z" fill="#D0DFEB"/>
<path d="M75.6465 724.84C75.6465 724.84 106.461 654.265 106.461 653.805L75.6465 724.84Z" fill="#C2D5E5"/>
<path d="M121.025 333.533L80.3219 343.813L-20.6309 372.196C-20.6309 372.273 65.6811 348.339 121.025 333.533Z" fill="#C2D5E5"/>
<path d="M-52.6714 465.324C-47.0757 477.061 32.184 602.485 32.184 602.485L-53.0547 464.404L-52.9014 464.711C-52.9014 464.864 -52.8247 465.094 -52.6714 465.324Z" fill="#E1EAF2"/>
<path d="M106.461 653.805L32.1836 602.408C34.1766 604.249 106.461 653.805 106.461 653.805Z" fill="#ADC7DC"/>
<path d="M-69.8418 559.143L32.184 602.408L-8.13573 585.302L-69.8418 559.143Z" fill="#E1EAF2"/>
<path d="M0.832125 463.33L-20.6309 372.273L32.1834 602.408L0.832125 463.33Z" fill="#E6EEF5"/>
<path d="M106.461 653.805C106.461 654.189 75.6465 724.84 75.6465 724.84L130.3 701.06L106.461 653.805Z" fill="#E6EEF5"/>
<path d="M166.327 685.564L106.461 653.805L76.1025 724.441L166.327 685.564Z" fill="#ADC7DC"/>
<path d="M166.327 685.564V685.027L195.783 638.89L106.461 653.805L166.327 685.564Z" fill="#E1EAF2"/>
<path d="M71.8905 685.947L24.2119 729.827L75.6465 724.84L106.461 653.805L71.8905 685.947Z" fill="#C2D5E5"/>
<path d="M-7.0625 695.153L71.8906 685.947L32.1841 602.408L-7.0625 695.153Z" fill="#C2D5E5"/>
<path d="M-68.7686 698.912L-7.06245 695.153L32.1842 602.408L-68.7686 698.912Z" fill="#D0DFEB"/>
<path d="M71.8901 685.947L106.461 653.805C106.461 653.805 34.1766 604.249 32.1836 602.408L71.8901 685.947Z" fill="#B9D0E2"/>
<path d="M106.461 653.805C106.461 653.805 113.973 545.181 113.973 543.494L32.1836 602.408L106.461 653.805Z" fill="#ADC7DC"/>
<path d="M106.461 653.805L167.103 569.536L113.896 543.57C113.973 545.181 106.461 653.805 106.461 653.805Z" fill="#C2D5E5"/>
<path d="M195.783 639.146L166.327 570.266V569.729L106.461 653.805L195.783 639.146Z" fill="#E6EEF5"/>
<path d="M166.327 569.729V483.888C166.327 484.425 113.014 543.838 113.014 543.838L166.327 569.729Z" fill="#E1EAF2"/>
<path d="M-69.8414 559.143L-106.348 646.288H-14.0376L32.2611 602.408L-69.8414 559.143Z" fill="#D3E1ED"/>
<path d="M113.973 543.494L89.6738 451.593L32.1836 602.408L113.973 543.494Z" fill="#E1EAF2"/>
<path d="M285.097 372.278L214.83 405.109L271.408 489.736L280.229 422.765C280.229 422.765 284.407 373.659 285.097 372.278Z" fill="#ADC7DC"/>
<path d="M-52.9785 464.48L-69.7656 559.143L-8.05946 585.301L32.2603 602.408C32.1837 602.408 -47.3828 476.217 -52.9785 464.48Z" fill="#B9D0E2"/>
<path d="M113.973 543.494C113.973 543.494 166.327 484.425 166.327 483.888L89.6738 451.593L113.973 543.494Z" fill="#E6EEF5"/>
<path d="M32.184 602.408L-20.6303 372.273L-53.0547 464.404L32.184 602.408Z" fill="#E6EEF5"/>
<path d="M166.327 483.889V483.352V320.482C163.798 329.381 89.6738 451.593 89.6738 451.593L166.327 483.889Z" fill="#D0DFEB"/>
<path d="M32.1834 602.408L89.6735 451.593L0.832031 463.33L32.1834 602.408Z" fill="#D3E1ED"/>
<path d="M89.6736 451.593L-20.6309 372.273L0.832137 463.33L89.6736 451.593Z" fill="#D0DFEB"/>
<path d="M-20.6309 372.273L89.6736 451.67C89.6736 451.67 163.754 329.654 166.284 320.756L121.025 333.61C65.681 348.339 -20.6309 372.273 -20.6309 372.273Z" fill="#C2D5E5"/>
<path d="M166.328 483.352V319.415C166.328 321.639 205.17 388.309 215.135 405.109L212.701 409.067L166.328 483.352Z" fill="#E1EAF2"/>
<path d="M5.67279 146.27L-20.6309 372.273L61.0472 264.509L5.67279 146.27Z" fill="#E6EEF5"/>
<path d="M60.7918 263.743L-19.8457 371.767L120.936 333.878L166.01 321.029L60.7918 263.743Z" fill="#E1EAF2"/>
<path d="M61.0479 263.88L167.05 321.713L192.211 198.366L61.0479 263.88Z" fill="#D3E1ED"/>
<path d="M192.211 198.366L285.096 372.233L398.251 324.44L192.211 198.366Z" fill="#D3E1ED"/>
<path d="M469.305 402.158L271.457 489.708L410.294 515.399L469.305 402.158Z" fill="#B9D0E2"/>
<path d="M398.251 325.353L271.457 489.708L467.604 403.892L398.251 325.353Z" fill="#C4D7E6"/>
<path d="M-95.124 244.59L-20.6302 372.273L5.67287 145.504L-95.124 244.59Z" fill="#D3E1ED"/>
<path d="M416.359 715.926L386.721 669.645L325.71 702.827L416.359 715.926Z" fill="#B9D0E2"/>
<path d="M348.301 749.08C338.851 729.639 325.686 702.154 325.819 702.675L240.041 685.725L357.78 768.014C357.199 766.658 353.063 758.791 348.301 749.08Z" fill="#E6EEF5"/>
<path d="M259.544 628.547L240.041 685.725L325.691 702.751C325.71 702.826 260.385 629.679 259.544 628.547Z" fill="#D0DFEB"/>
<path d="M325.71 702.826L309.01 620.007L259.24 628.547L325.71 702.826Z" fill="#C4D7E6"/>
<path d="M325.71 702.826L386.721 669.645L309.011 620.007L325.71 702.826Z" fill="#ADC7DC"/>
<path d="M386.389 669.947L473.992 650.769L435.057 601.15L386.389 669.947Z" fill="#ADC7DC"/>
<path d="M309.01 620.007L386.72 669.645L436.578 599.628L309.01 620.007Z" fill="#B9D0E2"/>
<path d="M260.457 628.852L309.011 620.007L271.457 489.434L260.457 628.852Z" fill="#D3E1ED"/>
<path d="M410.907 514.915L309.01 620.007L397.511 607.849C397.511 607.849 435.075 601.834 435.056 601.759C435.546 598.706 410.578 516.424 410.907 514.915Z" fill="#D3E1ED"/>
<path d="M410.907 514.915L271.457 489.708L309.01 620.007L410.907 514.915Z" fill="#C4D7E6"/>
<path d="M398.251 325.962L381.811 243.823L192.211 198.366L398.251 325.962Z" fill="#E6EEF5"/>
<path d="M310.87 147.063L430.221 198.876L297.346 29.3078L310.87 147.063Z" fill="#E6EEF5"/>
<path d="M240.858 33.2576L171.796 43.8905L192.355 -50.9258L239.337 -15.1439L297.486 29.6323L240.858 33.2576Z" fill="#ADC7DC"/>
<path d="M241.162 114.231L171.796 43.8904L238.424 33.3804L297.486 29.6322L241.162 114.231Z" fill="#C2D5E5"/>
<path d="M311.126 147.062L191.956 198.367L241.163 114.231L311.126 147.062Z" fill="#C2D5E5"/>
<path d="M192.357 -50.3886L171.796 44.1459C171.796 43.6089 139.043 -24.4979 139.043 -24.4979L192.357 -50.3886Z" fill="#E1EAF2"/>
<path d="M140.002 -24.1534L115.703 67.7474L58.2129 -83.0681L140.002 -24.1534Z" fill="#E1EAF2"/>
<path d="M-26.2249 55.8668L-43.7373 -39.8028L17.9689 -65.9616L58.2886 -83.0683C58.212 -83.0683 -20.6292 44.1299 -26.2249 55.8668Z" fill="#E1EAF2"/>
<path d="M140.002 -24.1533C140.002 -24.1533 171.797 43.6089 171.797 44.1459L115.703 67.7474L140.002 -24.1533Z" fill="#E6EEF5"/>
<path d="M59.261 -85.1008L5.39806 147.068L-27.0264 54.9365L59.261 -85.1008Z" fill="#E6EEF5"/>
<path d="M171.797 43.8903L192.357 198.858C189.827 189.959 115.703 67.747 115.703 67.747L171.797 43.8903Z" fill="#D0DFEB"/>
<path d="M58.2127 -83.0681L115.703 67.7474L26.8613 56.0105L58.2127 -83.0681Z" fill="#D3E1ED"/>
<path d="M115.702 67.7475L5.39746 147.068L26.8605 56.0106L115.702 67.7475Z" fill="#D0DFEB"/>
<path d="M5.39746 147.067L115.702 67.6704C115.702 67.6704 189.783 189.686 192.312 198.584L147.053 185.73C91.7093 171.001 5.39746 147.067 5.39746 147.067Z" fill="#C2D5E5"/>
<path d="M-27.026 54.9365L5.39845 147.068L-131.045 140.394L-27.026 54.9365Z" fill="#D0DFEB"/>
<path d="M171.796 43.8903L192.21 198.622C192.792 196.73 231.769 131.356 241.163 114.231L238.729 110.273L171.796 43.8903Z" fill="#E1EAF2"/>
<path d="M60.2818 264.764L5.67285 147.036L192.466 198.367L60.2818 264.764Z" fill="#E1EAF2"/>
<path d="M191.956 198.367L311.125 147.108L424.28 194.9L191.956 198.367Z" fill="#D3E1ED"/>
<path d="M495.333 117.182L297.485 29.6321L436.322 3.94053L495.333 117.182Z" fill="#B9D0E2"/>
<path d="M-95.1236 244.334L-131.045 140.393L5.39845 147.067L-95.1236 244.334Z" fill="#C4D7E6"/>
<path d="M424.28 193.987L297.486 29.6324L493.633 115.449L424.28 193.987Z" fill="#C4D7E6"/>
<path d="M436.936 4.42485L335.039 -100.667L423.54 -88.5087L461.173 -82.2654C461.173 -82.2654 436.608 2.91645 436.936 4.42485Z" fill="#D3E1ED"/>
<path d="M436.935 4.42482L297.485 29.6321L335.039 -100.667L436.935 4.42482Z" fill="#C7D9E8"/>
<path d="M423.916 194.281L192.211 198.367L382.832 244.59L423.916 194.281Z" fill="#ADC7DC"/>
<path d="M297.346 29.5631L240.951 114.348L310.871 147.036L297.346 29.5631Z" fill="#D3E1ED"/>
<path d="M336.389 -101.189L297.346 30.074L276.421 -131.835L336.389 -101.189Z" fill="#C2D5E5"/>
<path d="M191.956 -49.8588L276.421 -133.367L297.346 29.8185L191.956 -49.8588Z" fill="#B9D0E2"/>
</g>
<defs>
<clipPath id="clip0">
<rect width="375" height="680" fill="white" transform="matrix(1 0 0 -1 0 680)"/>
</clipPath>
</defs>
</svg>

<svg width="375" height="680" fill="none" xmlns="http://www.w3.org/2000/svg"><g clip-path="url(#clip0)"><path fill="#fff" d="M0 680h375V0H0z"/><path d="M212.396 400.426l-46.069-80.01c0 2.148 36.104 63.363 46.069 80.163v-.153z" fill="#C2D5E5"/><path d="M212.396 532.907l-46.069 37.282s22.536-17.874 46.069-36.745v-.537z" fill="#B9D0E2"/><path d="M212.396 341.358c-23.379-11.123-46.069-21.786-46.069-20.942l46.069 21.556v-.614z" fill="#C2D5E5"/><path d="M212.396 485.959l-46.069-2.608 46.069 3.145v-.537z" fill="#B9D0E2"/><path d="M195.528 638.89l-29.201 46.137 46.069.69h27.985l-44.853-46.827z" fill="#D3E1ED"/><path d="M260.457 628.243l-65.439 10.392 45.059 47.142 20.38-57.534z" fill="#E1EAF2"/><path d="M213.31 597.193l-46.982-26.927 29.201 68.369 65.841-10.392-48.06-31.05z" fill="#D0DFEB"/><path d="M271.457 489.435c-23.532 18.871-105.13 80.831-105.13 80.831l94.434 58.282 10.696-139.113z" fill="#E1EAF2"/><path d="M284.841 372.278l119.35-51.814-132.813 169.527 13.463-117.713z" fill="#E6EEF5"/><path d="M214.83 486.082l-48.503-2.731v86.915l46.982-35.782 58.148-44.776-56.627-3.626z" fill="#B9D0E2"/><path d="M215.134 405.109l-48.807 78.242 46.069 2.609 59.061 3.748-56.323-84.599zm69.964-32.831l-118.77-51.862 48.807 84.693 69.963-32.831z" fill="#C2D5E5"/><path d="M192.21 198.366l-25.96 122.05c0-.844 22.689 9.819 46.069 20.942l73.033 31.175-93.142-174.167z" fill="#ADC7DC"/><path d="M-14.115 646.287l-54.654 52.625 100.953-96.504-46.299 43.879z" fill="#D0DFEB"/><path d="M75.647 724.84s30.814-70.575 30.814-71.035L75.647 724.84zm45.378-391.307l-40.703 10.28-100.953 28.383c0 .077 86.312-23.857 141.656-38.663z" fill="#C2D5E5"/><path d="M-52.671 465.324c5.595 11.737 84.855 137.161 84.855 137.161l-85.239-138.081.154.307c0 .153.076.383.23.613z" fill="#E1EAF2"/><path d="M106.461 653.805l-74.277-51.397c1.993 1.841 74.277 51.397 74.277 51.397z" fill="#ADC7DC"/><path d="M-69.842 559.143l102.026 43.265-40.32-17.106-61.706-26.159z" fill="#E1EAF2"/><path d="M.832 463.33l-21.463-91.057 52.814 230.135L.833 463.33zm105.629 190.475c0 .384-30.814 71.035-30.814 71.035l54.653-23.78-23.839-47.255z" fill="#E6EEF5"/><path d="M166.327 685.564l-59.866-31.759-30.358 70.636 90.224-38.877z" fill="#ADC7DC"/><path d="M166.327 685.564v-.537l29.456-46.137-89.322 14.915 59.866 31.759z" fill="#E1EAF2"/><path d="M71.89 685.947l-47.678 43.88 51.434-4.987 30.815-71.035-34.57 32.142z" fill="#C2D5E5"/><path d="M-7.063 695.153l78.954-9.206-39.707-83.539-39.246 92.745z" fill="#C2D5E5"/><path d="M-68.769 698.912l61.707-3.759 39.246-92.745-100.953 96.504z" fill="#D0DFEB"/><path d="M71.89 685.947l34.571-32.142s-72.284-49.556-74.277-51.397l39.706 83.539z" fill="#B9D0E2"/><path d="M106.461 653.805s7.512-108.624 7.512-110.311l-81.79 58.914 74.278 51.397z" fill="#ADC7DC"/><path d="M106.461 653.805l60.642-84.269-53.207-25.966c.077 1.611-7.435 110.235-7.435 110.235z" fill="#C2D5E5"/><path d="M195.783 639.146l-29.456-68.88v-.537l-59.866 84.076 89.322-14.659z" fill="#E6EEF5"/><path d="M166.327 569.729v-85.841c0 .537-53.313 59.95-53.313 59.95l53.313 25.891z" fill="#E1EAF2"/><path d="M-69.841 559.143l-36.507 87.145h92.31l46.3-43.88-102.103-43.265z" fill="#D3E1ED"/><path d="M113.973 543.494l-24.3-91.901-57.49 150.815 81.79-58.914z" fill="#E1EAF2"/><path d="M285.097 372.278l-70.267 32.831 56.578 84.627 8.821-66.971s4.178-49.106 4.868-50.487z" fill="#ADC7DC"/><path d="M-52.978 464.48l-16.788 94.663 61.707 26.158 40.32 17.107c-.077 0-79.644-126.191-85.24-137.928z" fill="#B9D0E2"/><path d="M113.973 543.494s52.354-59.069 52.354-59.606l-76.653-32.295 24.299 91.901zm-81.789 58.914L-20.63 372.273l-32.425 92.131 85.239 138.004z" fill="#E6EEF5"/><path d="M166.327 483.889V320.482c-2.529 8.899-76.653 131.111-76.653 131.111l76.653 32.296z" fill="#D0DFEB"/><path d="M32.183 602.408l57.49-150.815L.833 463.33l31.351 139.078z" fill="#D3E1ED"/><path d="M89.674 451.593l-110.305-79.32L.832 463.33l88.842-11.737z" fill="#D0DFEB"/><path d="M-20.63 372.273L89.673 451.67s74.08-122.016 76.61-130.914l-45.259 12.854C65.68 348.339-20.632 372.273-20.632 372.273z" fill="#C2D5E5"/><path d="M166.328 483.352V319.415c0 2.224 38.842 68.894 48.807 85.694l-2.434 3.958-46.373 74.285z" fill="#E1EAF2"/><path d="M5.673 146.27l-26.304 226.003 81.678-107.764L5.673 146.27z" fill="#E6EEF5"/><path d="M60.792 263.743l-80.638 108.024 140.782-37.889 45.074-12.849-105.218-57.286z" fill="#E1EAF2"/><path d="M61.048 263.88l106.002 57.833 25.161-123.347L61.048 263.88z" fill="#D3E1ED"/><path d="M192.211 198.366l92.885 173.867 113.155-47.793-206.04-126.074z" fill="#D3E1ED"/><path d="M469.305 402.158l-197.848 87.55 138.837 25.691 59.011-113.241z" fill="#B9D0E2"/><path d="M398.251 325.353L271.457 489.708l196.147-85.816-69.353-78.539z" fill="#C4D7E6"/><path d="M-95.124 244.59l74.494 127.683L5.673 145.504-95.124 244.59z" fill="#D3E1ED"/><path d="M416.359 715.926l-29.638-46.281-61.011 33.182 90.649 13.099z" fill="#B9D0E2"/><path d="M348.301 749.08c-9.45-19.441-22.615-46.926-22.482-46.405l-85.778-16.95 117.739 82.289c-.581-1.356-4.717-9.223-9.479-18.934z" fill="#E6EEF5"/><path d="M259.544 628.547l-19.503 57.178 85.65 17.026c.019.075-65.306-73.072-66.147-74.204z" fill="#D0DFEB"/><path d="M325.71 702.826l-16.7-82.819-49.77 8.54 66.47 74.279z" fill="#C4D7E6"/><path d="M325.71 702.826l61.011-33.181-77.71-49.638 16.699 82.819z" fill="#ADC7DC"/><path d="M386.389 669.947l87.603-19.178-38.935-49.619-48.668 68.797z" fill="#ADC7DC"/><path d="M309.01 620.007l77.71 49.638 49.858-70.017-127.568 20.379z" fill="#B9D0E2"/><path d="M260.457 628.852l48.554-8.845-37.554-130.573-11 139.418z" fill="#D3E1ED"/><path d="M410.907 514.915L309.01 620.007l88.501-12.158s37.564-6.015 37.545-6.09c.49-3.053-24.478-85.335-24.149-86.844z" fill="#D3E1ED"/><path d="M410.907 514.915l-139.45-25.207 37.553 130.299 101.897-105.092z" fill="#C4D7E6"/><path d="M398.251 325.962l-16.44-82.139-189.6-45.457 206.04 127.596zM310.87 147.063l119.351 51.813L297.346 29.308l13.524 117.755z" fill="#E6EEF5"/><path d="M240.858 33.258L171.796 43.89l20.559-94.817 46.982 35.782 58.149 44.776-56.628 3.626z" fill="#ADC7DC"/><path d="M241.162 114.231l-69.366-70.34 66.628-10.51 59.062-3.749-56.324 84.599zm69.964 32.831l-119.17 51.305 49.207-84.136 69.963 32.831z" fill="#C2D5E5"/><path d="M192.357-50.389l-20.561 94.535c0-.537-32.753-68.644-32.753-68.644l53.314-25.89z" fill="#E1EAF2"/><path d="M140.002-24.153l-24.299 91.9-57.49-150.815 81.789 58.915z" fill="#E1EAF2"/><path d="M-26.225 55.867l-17.512-95.67 61.706-26.159 40.32-17.106c-.077 0-78.918 127.198-84.514 138.935z" fill="#E1EAF2"/><path d="M140.002-24.153s31.795 67.762 31.795 68.299l-56.094 23.601 24.299-91.9zM59.261-85.1L5.398 147.067l-32.424-92.132L59.26-85.1z" fill="#E6EEF5"/><path d="M171.797 43.89l20.56 154.968c-2.53-8.899-76.654-131.111-76.654-131.111l56.094-23.857z" fill="#D0DFEB"/><path d="M58.213-83.068l57.49 150.815-88.842-11.736L58.213-83.07z" fill="#D3E1ED"/><path d="M115.702 67.748L5.397 147.067 26.86 56.011l88.842 11.736z" fill="#D0DFEB"/><path d="M5.397 147.067L115.702 67.67s74.081 122.016 76.61 130.914l-45.259-12.854C91.709 171.001 5.397 147.067 5.397 147.067z" fill="#C2D5E5"/><path d="M-27.026 54.937l32.424 92.131-136.443-6.674 104.019-85.458z" fill="#D0DFEB"/><path d="M171.796 43.89l20.414 154.732c.582-1.892 39.559-67.266 48.953-84.391l-2.434-3.958-66.933-66.383z" fill="#E1EAF2"/><path d="M60.282 264.764L5.672 147.036l186.794 51.331-132.184 66.397z" fill="#E1EAF2"/><path d="M191.956 198.367l119.169-51.259L424.28 194.9l-232.324 3.467z" fill="#D3E1ED"/><path d="M495.333 117.182l-197.848-87.55L436.322 3.941l59.011 113.241z" fill="#B9D0E2"/><path d="M-95.124 244.334l-35.921-103.941 136.443 6.674-100.522 97.267zm519.404-50.347L297.486 29.632l196.147 85.817-69.353 78.538z" fill="#C4D7E6"/><path d="M436.936 4.425L335.039-100.667l88.501 12.158 37.633 6.244s-24.565 85.181-24.237 86.69z" fill="#D3E1ED"/><path d="M436.935 4.425l-139.45 25.207 37.554-130.299L436.935 4.425z" fill="#C7D9E8"/><path d="M423.916 194.281l-231.705 4.086 190.621 46.223 41.084-50.309z" fill="#ADC7DC"/><path d="M297.346 29.563l-56.395 84.785 69.92 32.688-13.525-117.473z" fill="#D3E1ED"/><path d="M336.389-101.189L297.346 30.074l-20.925-161.909 59.968 30.646z" fill="#C2D5E5"/><path d="M191.956-49.859l84.465-83.508 20.925 163.185-105.39-79.677z" fill="#B9D0E2"/></g><defs><clipPath id="clip0"><path fill="#fff" transform="matrix(1 0 0 -1 0 680)" d="M0 0h375v680H0z"/></clipPath></defs></svg>
